public/work/imported/logos/hot-wax.svg

<svg xmlns="http://www.w3.org/2000/svg" viewBox="0.45 0.95 401.54 381.81"><path fill="#0a0a0a" fill-rule="evenodd" d="M287 9.428c-7.975.653-15.507 1.737-16.738 2.408-3.169 1.73-3.758 4.882-3.722 19.914.043 17.885-1.296 16.843 21.076 16.414 17.036-.327 17.541-.279 18.069 1.738.298 1.142.884 1.865 1.301 1.607 1.048-.648 1.99 5.706 2.001 13.491.005 3.575-1.109 20.9-2.475 38.5-1.59 20.464-2.49 39.941-2.499 54.027-.015 24.763.004 24.834 7.303 28.736 3.695 1.976 5.812 2.258 18.118 2.418 17.898.232 18.933-.223 20.458-8.983 1.498-8.6 1.348-32.553-.332-53.008-1.341-16.33-1.211-70.093.178-73.69.319-.825.529-1.775.467-2.112s6.688-.701 15.001-.81c15.27-.2 23.201-1.085 24.893-2.777 1.448-1.448 4.022-16.104 4.104-23.359.068-6.048-2.213-13.884-4.067-13.972C361.4 8.611 300.856 8.293 287 9.428m-87 .55c-16.061 1.114-23.88 3.739-30.073 10.097-10.476 10.756-12.054 21.474-11.835 80.407.227 61.15 1.017 66.984 10.299 76.072 9.117 8.926 27.35 14.312 44.084 13.023 15.486-1.194 16.474-1.409 24.345-5.29 10.099-4.981 13.346-9.443 16.713-22.968 2.389-9.602 2.444-10.72 2.455-50.519.008-28.235-.457-46.152-1.52-58.5-2.379-27.643-5.123-33.545-18.396-39.566-7.468-3.387-16.746-4.096-36.072-2.756m-86.097 1.149c-5.663.817-10.484 3.222-11.95 5.96-.608 1.137-1.485 11.186-1.95 22.338-.896 21.512-1.752 26.715-5.095 30.964-3.463 4.403-7.126 5.676-16.428 5.711-9.408.035-13.143-1.614-15.95-7.042-1.838-3.554-3.221-15.44-4.079-35.058-.373-8.525-1.09-16.283-1.594-17.24-1.923-3.652-6.865-5.149-16.643-5.043-10.59.115-18.385 1.679-20.499 4.113-1.23 1.415-1.548 13.679-2.088 80.323-.695 85.904-.641 86.975 4.637 91.416C24.98 189.854 25.889 190 37.402 190c11.875 0 12.323-.079 14.674-2.581 1.333-1.419 2.261-2.656 2.061-2.75s.374-2.644 1.274-5.669 2.306-13.6 3.124-23.5 1.924-22.05 2.458-27 .979-9.334.989-9.741c.029-1.209 6.094-6.648 8.134-7.296 1.036-.329 1.884-.96 1.884-1.403 0-1.195 18.196-1.316 21.285-.142 1.554.591 2.923 2.062 3.294 3.54.35 1.394 1.101 2.24 1.674 1.886.679-.42.802.302.353 2.091-.401 1.596-.301 2.495.239 2.161 1.277-.789 2.018 8.28 2.688 32.904.571 21.01.801 23.745 2.586 30.743 1.48 5.805 4.318 6.757 20.143 6.757 15.504 0 17.222-.78 18.13-8.229.389-3.188 2.002-129.763 2.017-158.271.003-5.072-2.216-9.644-5.418-11.166-2.947-1.401-18.545-2.151-25.088-1.207M16.232 21c0 1.925.206 2.712.457 1.75.252-.962.252-2.538 0-3.5-.251-.962-.457-.175-.457 1.75m190.814 3.73c-4.569 1.799-11.894 9.963-12.711 14.167-3.645 18.76 4.007 31.957 19.087 32.917 13.775.877 24.891-6.895 27.092-18.944.674-3.687-1.568-14.777-3.466-17.148-8.292-10.355-10.84-11.754-21.199-11.643-4.042.043-8.003.337-8.803.651M16.232 28c0 1.925.206 2.712.457 1.75.252-.962.252-2.538 0-3.5-.251-.962-.457-.175-.457 1.75m140.054 34.5c.008 2.75.202 3.756.432 2.236s.223-3.77-.014-5-.425.014-.418 2.764m-140 7c.008 2.75.202 3.756.432 2.236s.223-3.77-.014-5-.425.014-.418 2.764M156.407 84c0 9.075.152 12.787.337 8.25s.185-11.963 0-16.5-.337-.825-.337 8.25M16.3 81c0 3.025.187 4.263.416 2.75s.229-3.987 0-5.5-.416-.275-.416 2.75m.049 14c0 4.675.173 6.587.383 4.25.211-2.338.211-6.163 0-8.5-.21-2.338-.383-.425-.383 4.25m139.961 11.5c.005 3.3.192 4.529.415 2.732s.218-4.497-.01-6c-.229-1.503-.411-.032-.405 3.268M16.232 109c0 1.925.206 2.713.457 1.75.252-.963.252-2.537 0-3.5-.251-.963-.457-.175-.457 1.75m140.068 9c0 3.025.187 4.263.416 2.75s.229-3.987 0-5.5-.416-.275-.416 2.75M15.328 163.5c.005 3.85.185 5.302.402 3.228.216-2.075.213-5.225-.008-7s-.398-.078-.394 3.772M357.2 191.485l-3.284 2.763.008 13.126c.009 14.25.026 15.047.434 19.876.151 1.787-.094 4.01-.544 4.939-.478.985-.394 1.952.2 2.319.56.347.716 1.12.346 1.718-.37.599-.595 3.124-.501 5.611.256 6.771-1.812 15.811-4.087 17.868-1.723 1.557-3.955 1.795-16.867 1.795h-14.881l-4.757-4.758-4.757-4.758-.668-8.742c-.367-4.808-.709-16.617-.759-26.242-.081-15.589-.307-17.855-2.072-20.75-1.09-1.787-2.326-3.284-2.746-3.327-.421-.042-1.665-.354-2.765-.694s-6.832-.573-12.739-.518c-12.273.114-19.263 2.455-20.358 6.819-.324 1.291-.386 11.037-.138 21.658.446 19.145.486 19.431 4.571 33.069 4.7 15.692 6.148 18.937 10.502 23.523 2.631 2.772 2.922 3.547 1.882 5-2.733 3.815-4.176 8.398-7.239 22.99-2.868 13.658-3.196 16.928-3.114 31 .05 8.651.262 16.63.47 17.73.209 1.1.989 5.526 1.735 9.835 1.19 6.876 1.691 8.008 4.092 9.25 3.275 1.693 10.675 1.791 25.412.337 6.873-.678 11.474-1.612 12.406-2.518 1.054-1.024 1.463-3.527 1.416-8.672-.035-3.977-.176-17.92-.313-30.983-.229-22.055-.093-24.216 1.915-30.25 1.19-3.575 2.504-6.499 2.921-6.499s1.264-1.11 1.882-2.467c1.646-3.613 8.921-8.535 12.597-8.523 4.473.014 12.68 4.142 16.925 8.513 6.187 6.37 6.553 11.903 1.388 20.977-2.077 3.65-3.017 4.238-10.745 6.723-10.872 3.496-13.291 6.004-14.997 15.553-1.176 6.577-.936 23.075.424 29.224.304 1.375 2.088 3.921 3.964 5.658 4.326 4.005 9.321 4.606 34.629 4.164l18.488-.322 1.292-2.699c1.768-3.692 3.528-33.997 3.009-51.801-.47-16.14-1.937-21.859-8.215-32.031-5.06-8.198-5.178-9.594-1.708-20.175 2.932-8.94 6.536-31.442 9.349-58.362 1.658-15.869-.479-17.885-20.211-19.076-10.427-.629-10.534-.612-13.792 2.129m-5.005 5.015c.02 1.65.244 2.204.498 1.231s.237-2.323-.037-3-.481.119-.461 1.769m-294.821.16c-4.335.911-6.196 4.349-7.124 13.164-.818 7.772-.741 8.419 1.159 9.75 1.12.784 3.623 1.436 5.564 1.448 6.797.042 11.211 2.99 19.172 12.804.592.729 1.139 2.417 1.216 3.749s.539 2.424 1.028 2.424c1.426.001-.05 11.835-1.812 14.524-2.306 3.519-9.028 6.617-15.665 7.219-7.354.666-10.065-.059-14.383-3.851C40.937 252.981 40 248.1 40 223.874c0-20.302-.052-20.823-2.331-23.472-1.885-2.192-3.405-2.798-7.953-3.176-7.725-.64-12.055.354-15.483 3.556l-2.91 2.718-.7 43.5c-.43 26.683-.321 47.173.281 53 .54 5.225 1.254 15.35 1.588 22.5.986 21.135 3.58 34.106 7.972 39.864 1.418 1.859 5.381 4.882 8.807 6.718 5.988 3.209 6.655 3.338 17.229 3.322 6.05-.009 12.125-.241 13.5-.516 4.922-.984 11-3.22 11-4.046 0-1.862 7.064-.667 12.609 2.132 3.24 1.636 7.751 3.254 10.025 3.596 6.6.993 21.103-1.981 29.436-6.037 9.185-4.47 11.519-6.632 14.606-13.533 4.417-9.877 5.357-23.054 5.992-84 .318-30.525.604-56.85.634-58.5.086-4.671-1.151-8.349-3.17-9.43-1.015-.543-10.166-1.118-20.336-1.278-19.484-.306-21.796.147-21.796 4.271 0 1.001-.394 2.062-.875 2.36-.481.297-.884 3.136-.894 6.309-.028 8.333 1.119 9.268 11.359 9.268 4.554 0 9.418.433 10.809.962 3.151 1.197 9.255 10.325 10.119 15.129C131.506 250.153 120.97 262 109.144 262c-4.801 0-9.499-2.884-11.745-7.208-1.969-3.79-3.361-18.657-3.382-36.108-.009-8.148-.45-15.624-.979-16.613-1.48-2.766-5.599-3.86-17.038-4.526-5.775-.336-11.85-.773-13.5-.971s-3.957-.16-5.126.086m146.341 1.467c-9.208 2.182-21.251 7.546-26.788 11.931-4.845 3.837-12.118 13.147-15.334 19.628-5.167 10.414-8.093 28.663-8.093 50.47 0 5.31-.336 9.447-.747 9.193-.411-.255-.379.575.072 1.844 1.026 2.891.876 35.865-.172 37.559-.424.686-.328 1.248.214 1.248.619 0 .939 7.536.86 20.25l-.126 20.25-.585-18.5-.584-18.5-.216 18.139c-.283 23.783-1.201 22.534 16.284 22.148l13-.287.586-57.5c.57-55.872.943-62.717 4.061-74.484 1.429-5.389 5.918-10.806 12.866-15.525 8.609-5.846 13.318-7.511 16.969-5.998 1.623.672 3.222 2.074 3.552 3.115.33 1.04 1.047 1.892 1.592 1.892s.714.45.374 1-.079 1 .58 1c.86 0 1.042 1.719.645 6.093-.961 10.6-7.752 18.856-16.684 20.285-2.238.357-5.002 1.583-6.142 2.723-2.057 2.057-2.068 2.443-1.528 53.736.3 28.414.854 53.386 1.231 55.492.514 2.872 1.333 4.076 3.276 4.815 1.524.579 12.162.855 25.823.67 20.441-.276 23.439-.522 24.962-2.047 2.149-2.151 2.862-17.202 3.899-82.267.793-49.838.41-54.567-5.436-67-6.731-14.318-20.394-23.749-33.888-23.395-3.706.098-10.241 1.008-14.523 2.022m60.571 4.373c.008 2.75.202 3.756.432 2.236s.223-3.77-.014-5-.425.014-.418 2.764m.092 17.5c0 6.325.163 8.912.361 5.75s.198-8.338 0-11.5-.361-.575-.361 5.75m-68.106 43c0 2.475.195 3.488.434 2.25.238-1.238.238-3.262 0-4.5-.239-1.238-.434-.225-.434 2.25M8.195 274.5c.02 1.65.244 2.204.498 1.231s.237-2.323-.037-3-.481.119-.461 1.769m2 35c.02 1.65.244 2.204.498 1.231s.237-2.323-.037-3-.481.119-.461 1.769m187 44c.02 1.65.244 2.204.498 1.231s.237-2.323-.037-3-.481.119-.461 1.769"/></svg>

<svg xmlns="http://www.w3.org/2000/svg" width="100%" height="100%" viewBox="0.45 0.95 401.54 381.81" version="1.1">
	<path d="M 287 9.428 C 279.025 10.081, 271.493 11.165, 270.262 11.836 C 267.093 13.566, 266.504 16.718, 266.540 31.750 C 266.583 49.635, 265.244 48.593, 287.616 48.164 C 304.652 47.837, 305.157 47.885, 305.685 49.902 C 305.983 51.044, 306.569 51.767, 306.986 51.509 C 308.034 50.861, 308.976 57.215, 308.987 65 C 308.992 68.575, 307.878 85.900, 306.512 103.500 C 304.922 123.964, 304.022 143.441, 304.013 157.527 C 303.998 182.290, 304.017 182.361, 311.316 186.263 C 315.011 188.239, 317.128 188.521, 329.434 188.681 C 347.332 188.913, 348.367 188.458, 349.892 179.698 C 351.390 171.098, 351.240 147.145, 349.560 126.690 C 348.219 110.360, 348.349 56.597, 349.738 53 C 350.057 52.175, 350.267 51.225, 350.205 50.888 C 350.143 50.551, 356.893 50.187, 365.206 50.078 C 380.476 49.878, 388.407 48.993, 390.099 47.301 C 391.547 45.853, 394.121 31.197, 394.203 23.942 C 394.271 17.894, 391.990 10.058, 390.136 9.970 C 361.400 8.611, 300.856 8.293, 287 9.428 M 200 9.978 C 183.939 11.092, 176.120 13.717, 169.927 20.075 C 159.451 30.831, 157.873 41.549, 158.092 100.482 C 158.319 161.632, 159.109 167.466, 168.391 176.554 C 177.508 185.480, 195.741 190.866, 212.475 189.577 C 227.961 188.383, 228.949 188.168, 236.820 184.287 C 246.919 179.306, 250.166 174.844, 253.533 161.319 C 255.922 151.717, 255.977 150.599, 255.988 110.800 C 255.996 82.565, 255.531 64.648, 254.468 52.300 C 252.089 24.657, 249.345 18.755, 236.072 12.734 C 228.604 9.347, 219.326 8.638, 200 9.978 M 113.903 11.127 C 108.240 11.944, 103.419 14.349, 101.953 17.087 C 101.345 18.224, 100.468 28.273, 100.003 39.425 C 99.107 60.937, 98.251 66.140, 94.908 70.389 C 91.445 74.792, 87.782 76.065, 78.480 76.100 C 69.072 76.135, 65.337 74.486, 62.530 69.058 C 60.692 65.504, 59.309 53.618, 58.451 34 C 58.078 25.475, 57.361 17.717, 56.857 16.760 C 54.934 13.108, 49.992 11.611, 40.214 11.717 C 29.624 11.832, 21.829 13.396, 19.715 15.830 C 18.485 17.245, 18.167 29.509, 17.627 96.153 C 16.932 182.057, 16.986 183.128, 22.264 187.569 C 24.980 189.854, 25.889 190, 37.402 190 C 49.277 190, 49.725 189.921, 52.076 187.419 C 53.409 186, 54.337 184.763, 54.137 184.669 C 53.937 184.576, 54.511 182.025, 55.411 179 C 56.311 175.975, 57.717 165.400, 58.535 155.500 C 59.353 145.600, 60.459 133.450, 60.993 128.500 C 61.527 123.550, 61.972 119.166, 61.982 118.759 C 62.011 117.550, 68.076 112.111, 70.116 111.463 C 71.152 111.134, 72 110.503, 72 110.060 C 72 108.865, 90.196 108.744, 93.285 109.918 C 94.839 110.509, 96.208 111.980, 96.579 113.458 C 96.929 114.852, 97.680 115.698, 98.253 115.344 C 98.932 114.924, 99.055 115.646, 98.606 117.435 C 98.205 119.031, 98.305 119.930, 98.845 119.596 C 100.122 118.807, 100.863 127.876, 101.533 152.500 C 102.104 173.510, 102.334 176.245, 104.119 183.243 C 105.599 189.048, 108.437 190, 124.262 190 C 139.766 190, 141.484 189.220, 142.392 181.771 C 142.781 178.583, 144.394 52.008, 144.409 23.500 C 144.412 18.428, 142.193 13.856, 138.991 12.334 C 136.044 10.933, 120.446 10.183, 113.903 11.127 M 16.232 21 C 16.232 22.925, 16.438 23.712, 16.689 22.750 C 16.941 21.788, 16.941 20.212, 16.689 19.250 C 16.438 18.288, 16.232 19.075, 16.232 21 M 207.046 24.730 C 202.477 26.529, 195.152 34.693, 194.335 38.897 C 190.690 57.657, 198.342 70.854, 213.422 71.814 C 227.197 72.691, 238.313 64.919, 240.514 52.870 C 241.188 49.183, 238.946 38.093, 237.048 35.722 C 228.756 25.367, 226.208 23.968, 215.849 24.079 C 211.807 24.122, 207.846 24.416, 207.046 24.730 M 16.232 28 C 16.232 29.925, 16.438 30.712, 16.689 29.750 C 16.941 28.788, 16.941 27.212, 16.689 26.250 C 16.438 25.288, 16.232 26.075, 16.232 28 M 156.286 62.500 C 156.294 65.250, 156.488 66.256, 156.718 64.736 C 156.947 63.216, 156.941 60.966, 156.704 59.736 C 156.467 58.506, 156.279 59.750, 156.286 62.500 M 16.286 69.500 C 16.294 72.250, 16.488 73.256, 16.718 71.736 C 16.947 70.216, 16.941 67.966, 16.704 66.736 C 16.467 65.506, 16.279 66.750, 16.286 69.500 M 156.407 84 C 156.407 93.075, 156.559 96.787, 156.744 92.250 C 156.929 87.713, 156.929 80.287, 156.744 75.750 C 156.559 71.213, 156.407 74.925, 156.407 84 M 16.300 81 C 16.300 84.025, 16.487 85.263, 16.716 83.750 C 16.945 82.237, 16.945 79.763, 16.716 78.250 C 16.487 76.737, 16.300 77.975, 16.300 81 M 16.349 95 C 16.349 99.675, 16.522 101.587, 16.732 99.250 C 16.943 96.912, 16.943 93.087, 16.732 90.750 C 16.522 88.412, 16.349 90.325, 16.349 95 M 156.310 106.500 C 156.315 109.800, 156.502 111.029, 156.725 109.232 C 156.947 107.435, 156.943 104.735, 156.715 103.232 C 156.486 101.729, 156.304 103.200, 156.310 106.500 M 16.232 109 C 16.232 110.925, 16.438 111.713, 16.689 110.750 C 16.941 109.787, 16.941 108.213, 16.689 107.250 C 16.438 106.287, 16.232 107.075, 16.232 109 M 156.300 118 C 156.300 121.025, 156.487 122.263, 156.716 120.750 C 156.945 119.237, 156.945 116.763, 156.716 115.250 C 156.487 113.737, 156.300 114.975, 156.300 118 M 15.328 163.500 C 15.333 167.350, 15.513 168.802, 15.730 166.728 C 15.946 164.653, 15.943 161.503, 15.722 159.728 C 15.501 157.952, 15.324 159.650, 15.328 163.500 M 357.200 191.485 L 353.916 194.248 353.924 207.374 C 353.933 221.624, 353.950 222.421, 354.358 227.250 C 354.509 229.037, 354.264 231.260, 353.814 232.189 C 353.336 233.174, 353.420 234.141, 354.014 234.508 C 354.574 234.855, 354.730 235.628, 354.360 236.226 C 353.990 236.825, 353.765 239.350, 353.859 241.837 C 354.115 248.608, 352.047 257.648, 349.772 259.705 C 348.049 261.262, 345.817 261.500, 332.905 261.500 L 318.024 261.500 313.267 256.742 L 308.510 251.984 307.842 243.242 C 307.475 238.434, 307.133 226.625, 307.083 217 C 307.002 201.411, 306.776 199.145, 305.011 196.250 C 303.921 194.463, 302.685 192.966, 302.265 192.923 C 301.844 192.881, 300.600 192.569, 299.500 192.229 C 298.400 191.889, 292.668 191.656, 286.761 191.711 C 274.488 191.825, 267.498 194.166, 266.403 198.530 C 266.079 199.821, 266.017 209.567, 266.265 220.188 C 266.711 239.333, 266.751 239.619, 270.836 253.257 C 275.536 268.949, 276.984 272.194, 281.338 276.780 C 283.969 279.552, 284.260 280.327, 283.220 281.780 C 280.487 285.595, 279.044 290.178, 275.981 304.770 C 273.113 318.428, 272.785 321.698, 272.867 335.770 C 272.917 344.421, 273.129 352.400, 273.337 353.500 C 273.546 354.600, 274.326 359.026, 275.072 363.335 C 276.262 370.211, 276.763 371.343, 279.164 372.585 C 282.439 374.278, 289.839 374.376, 304.576 372.922 C 311.449 372.244, 316.050 371.310, 316.982 370.404 C 318.036 369.380, 318.445 366.877, 318.398 361.732 C 318.363 357.755, 318.222 343.812, 318.085 330.749 C 317.856 308.694, 317.992 306.533, 320 300.499 C 321.190 296.924, 322.504 294, 322.921 294 C 323.338 294, 324.185 292.890, 324.803 291.533 C 326.449 287.920, 333.724 282.998, 337.400 283.010 C 341.873 283.024, 350.080 287.152, 354.325 291.523 C 360.512 297.893, 360.878 303.426, 355.713 312.500 C 353.636 316.150, 352.696 316.738, 344.968 319.223 C 334.096 322.719, 331.677 325.227, 329.971 334.776 C 328.795 341.353, 329.035 357.851, 330.395 364 C 330.699 365.375, 332.483 367.921, 334.359 369.658 C 338.685 373.663, 343.680 374.264, 368.988 373.822 L 387.476 373.500 388.768 370.801 C 390.536 367.109, 392.296 336.804, 391.777 319 C 391.307 302.860, 389.840 297.141, 383.562 286.969 C 378.502 278.771, 378.384 277.375, 381.854 266.794 C 384.786 257.854, 388.390 235.352, 391.203 208.432 C 392.861 192.563, 390.724 190.547, 370.992 189.356 C 360.565 188.727, 360.458 188.744, 357.200 191.485 M 352.195 196.500 C 352.215 198.150, 352.439 198.704, 352.693 197.731 C 352.947 196.758, 352.930 195.408, 352.656 194.731 C 352.382 194.054, 352.175 194.850, 352.195 196.500 M 57.374 196.660 C 53.039 197.571, 51.178 201.009, 50.250 209.824 C 49.432 217.596, 49.509 218.243, 51.409 219.574 C 52.529 220.358, 55.032 221.010, 56.973 221.022 C 63.770 221.064, 68.184 224.012, 76.145 233.826 C 76.737 234.555, 77.284 236.243, 77.361 237.575 C 77.437 238.908, 77.900 239.999, 78.389 239.999 C 79.815 240, 78.339 251.834, 76.577 254.523 C 74.271 258.042, 67.549 261.140, 60.912 261.742 C 53.558 262.408, 50.847 261.683, 46.529 257.891 C 40.937 252.981, 40 248.100, 40 223.874 C 40 203.572, 39.948 203.051, 37.669 200.402 C 35.784 198.210, 34.264 197.604, 29.716 197.226 C 21.991 196.586, 17.661 197.580, 14.233 200.782 L 11.323 203.500 10.623 247 C 10.193 273.683, 10.302 294.173, 10.904 300 C 11.444 305.225, 12.158 315.350, 12.492 322.500 C 13.478 343.635, 16.072 356.606, 20.464 362.364 C 21.882 364.223, 25.845 367.246, 29.271 369.082 C 35.259 372.291, 35.926 372.420, 46.500 372.404 C 52.550 372.395, 58.625 372.163, 60 371.888 C 64.922 370.904, 71 368.668, 71 367.842 C 71 365.980, 78.064 367.175, 83.609 369.974 C 86.849 371.610, 91.360 373.228, 93.634 373.570 C 100.234 374.563, 114.737 371.589, 123.070 367.533 C 132.255 363.063, 134.589 360.901, 137.676 354 C 142.093 344.123, 143.033 330.946, 143.668 270 C 143.986 239.475, 144.272 213.150, 144.302 211.500 C 144.388 206.829, 143.151 203.151, 141.132 202.070 C 140.117 201.527, 130.966 200.952, 120.796 200.792 C 101.312 200.486, 99 200.939, 99 205.063 C 99 206.064, 98.606 207.125, 98.125 207.423 C 97.644 207.720, 97.241 210.559, 97.231 213.732 C 97.203 222.065, 98.350 223, 108.590 223 C 113.144 223, 118.008 223.433, 119.399 223.962 C 122.550 225.159, 128.654 234.287, 129.518 239.091 C 131.506 250.153, 120.970 262, 109.144 262 C 104.343 262, 99.645 259.116, 97.399 254.792 C 95.430 251.002, 94.038 236.135, 94.017 218.684 C 94.008 210.536, 93.567 203.060, 93.038 202.071 C 91.558 199.305, 87.439 198.211, 76 197.545 C 70.225 197.209, 64.150 196.772, 62.500 196.574 C 60.850 196.376, 58.543 196.414, 57.374 196.660 M 203.715 198.127 C 194.507 200.309, 182.464 205.673, 176.927 210.058 C 172.082 213.895, 164.809 223.205, 161.593 229.686 C 156.426 240.100, 153.500 258.349, 153.500 280.156 C 153.500 285.466, 153.164 289.603, 152.753 289.349 C 152.342 289.094, 152.374 289.924, 152.825 291.193 C 153.851 294.084, 153.701 327.058, 152.653 328.752 C 152.229 329.438, 152.325 330, 152.867 330 C 153.486 330, 153.806 337.536, 153.727 350.250 L 153.601 370.500 153.016 352 L 152.432 333.500 152.216 351.639 C 151.933 375.422, 151.015 374.173, 168.500 373.787 L 181.500 373.500 182.086 316 C 182.656 260.128, 183.029 253.283, 186.147 241.516 C 187.576 236.127, 192.065 230.710, 199.013 225.991 C 207.622 220.145, 212.331 218.480, 215.982 219.993 C 217.605 220.665, 219.204 222.067, 219.534 223.108 C 219.864 224.148, 220.581 225, 221.126 225 C 221.672 225, 221.840 225.450, 221.500 226 C 221.160 226.550, 221.421 227, 222.080 227 C 222.940 227, 223.122 228.719, 222.725 233.093 C 221.764 243.693, 214.973 251.949, 206.041 253.378 C 203.803 253.735, 201.039 254.961, 199.899 256.101 C 197.842 258.158, 197.831 258.544, 198.371 309.837 C 198.671 338.251, 199.225 363.223, 199.602 365.329 C 200.116 368.201, 200.935 369.405, 202.878 370.144 C 204.402 370.723, 215.040 370.999, 228.701 370.814 C 249.142 370.538, 252.140 370.292, 253.663 368.767 C 255.812 366.616, 256.525 351.565, 257.562 286.500 C 258.355 236.662, 257.972 231.933, 252.126 219.500 C 245.395 205.182, 231.732 195.751, 218.238 196.105 C 214.532 196.203, 207.997 197.113, 203.715 198.127 M 264.286 202.500 C 264.294 205.250, 264.488 206.256, 264.718 204.736 C 264.947 203.216, 264.941 200.966, 264.704 199.736 C 264.467 198.506, 264.279 199.750, 264.286 202.500 M 264.378 220 C 264.378 226.325, 264.541 228.912, 264.739 225.750 C 264.937 222.588, 264.937 217.412, 264.739 214.250 C 264.541 211.088, 264.378 213.675, 264.378 220 M 196.272 263 C 196.272 265.475, 196.467 266.488, 196.706 265.250 C 196.944 264.012, 196.944 261.988, 196.706 260.750 C 196.467 259.512, 196.272 260.525, 196.272 263 M 8.195 274.500 C 8.215 276.150, 8.439 276.704, 8.693 275.731 C 8.947 274.758, 8.930 273.408, 8.656 272.731 C 8.382 272.054, 8.175 272.850, 8.195 274.500 M 10.195 309.500 C 10.215 311.150, 10.439 311.704, 10.693 310.731 C 10.947 309.758, 10.930 308.408, 10.656 307.731 C 10.382 307.054, 10.175 307.850, 10.195 309.500 M 197.195 353.500 C 197.215 355.150, 197.439 355.704, 197.693 354.731 C 197.947 353.758, 197.930 352.408, 197.656 351.731 C 197.382 351.054, 197.175 351.850, 197.195 353.500" stroke="none" fill="#0a0a0a" fill-rule="evenodd"/>
</svg>
